X: 39813
T: There Was An Old Man Who Lived In The Woods
R: polka
M: 2/4
K: Ddorian
Ad|:dc AB|c2 Ad|de dc|AG Ad|
dc AB|c2 AB|cB AG|1 EC Dd:|2 EC DE||
|:FG AB|c2 DE|FG AG|E/D/C DE|
FG AB|c2 AB|cB AG|1 EC DE:|2 EC Dd||

